X:1
T:Title
%%score { 1 | 2 }
L:1/8
Q:1/4=100
M:6/8
K:Ab
V:1 treble nm="Grand Piano"
V:2 bass 
V:1
 [CE][CF][CG] [CA][CB][CF] | [DA][DG]>[DF] G3 | dcB FGF | [DF][CE][Fd] [Ec]3 | %4
w: Herbert~Buffum * * * * *||||
 [CE][CF][CG] [CA][CB][Ec] |[M:7/8] [_Ge][Ge][GA] [Fd]3 [Fd] |[M:3/4] cc- c/d/ c2 B | [CA]6 | %8
w: ||||
 [Ec][=D_c] [E=c][CE] [CA][CB] | AG- G/_G/ =G3 | dc dF GF | [DF]2 [CE] [Ec]2 [Ec] | %12
w: ||||
 ec e[EA]/[EA]/- [EA][E_G] | %13
w: |
[M:7/8] [DF][DF][FA] [Fd]3 [Fd][Q:1/4=97][Q:1/4=94][Q:1/4=91][Q:1/4=88][Q:1/4=84][Q:1/4=81][Q:1/4=78] | %14
w: |
[M:3/4] cc- c/d/ c2 B | [CA]6 |] %16
w: ||
V:2
 [A,,A,][A,,A,][A,,A,] [A,,E,][A,,E,][A,,E,] | [B,,E,][B,,E,]>[B,,E,] [E,B,D]3 | %2
 [E,B,E][E,A,E][E,G,D] [E,G,D][E,G,D][E,G,D] | [A,,A,][A,,A,][A,,A,] [A,,A,]3 | %4
 [A,,A,][A,,A,][A,,A,] [A,,E,][A,,E,][A,,A,] |[M:7/8] [C,A,][C,A,][C,A,] [D,A,]3 [D,A,] | %6
[M:3/4] [E,A,E][E,A,E]- [E,A,E]/[E,B,E]/ [E,A,E]2 [E,G,D] | [A,,A,]6 | %8
 [A,,A,][A,,A,] [A,,A,][A,,A,] [A,,A,][A,,A,] | [E,B,D][E,B,D]- [E,B,D]/[E,=A,D]/ [E,B,D]3 | %10
 [E,B,E][E,=A,E] [E,B,E][E,G,D] [E,G,D][E,G,D] | [A,,A,]2 [A,,A,] [A,,A,]2 [A,,A,] | %12
 [A,CE][A,E] [A,CE][C,A,]/[C,A,]/- [C,A,][C,A,] |[M:7/8] [D,A,][D,A,][D,A,] [D,A,]3 [D,A,] | %14
[M:3/4] [E,A,E][E,A,E]- [E,A,E]/[E,B,E]/ [E,A,E]2 [E,D] | [A,,E,]6 |] %16

